icons/op-user-minus-24.svg

<svg width="24" height="24" viewBox="0 0 24 24" fill="none" xmlns="http://www.w3.org/2000/svg">
<path d="M13.218 16.9959V15.9837H18.5557C17.9591 15.3959 16.609 14.9388 15.2588 14.3837C13.7517 13.7306 13.4063 13.502 13.4063 13.502V12C13.4063 12 13.9401 11.5429 14.1285 10.1388C14.4739 10.2367 14.8507 9.58367 14.8821 9.25714C14.8821 8.93061 14.8193 8.01633 14.3797 8.11429C14.4739 7.39592 14.5367 6.77551 14.5053 6.44898C14.4111 5.27347 13.2493 4 11.5224 4C9.76413 4 8.63379 5.27347 8.50819 6.44898C8.4768 6.77551 8.53959 7.39592 8.63379 8.11429C8.19421 8.01633 8.13141 8.93061 8.16281 9.25714C8.16281 9.58367 8.53959 10.2367 8.88497 10.1388C9.07337 11.5429 9.63854 12 9.63854 12L9.60714 13.502C9.60714 13.502 9.26176 13.7306 7.75463 14.3837C6.27891 15.0041 4.74039 15.4612 4.30081 16.2122C3.89263 16.8653 4.01823 20 4.01823 20H13.218V16.9959ZM14.1913 18.9878V16.9959H20V18.9878H14.1913Z" fill="black"/>
</svg>

<svg xmlns="http://www.w3.org/2000/svg" width="24" height="24" viewBox="0 0 24 24"><path d="M13.218 16.996v-1.012h5.338c-.597-.588-1.947-1.045-3.297-1.6-1.507-.653-1.853-.882-1.853-.882V12s.534-.457.723-1.861c.345.098.722-.555.753-.882 0-.326-.063-1.241-.502-1.143.094-.718.157-1.338.125-1.665C14.411 5.273 13.249 4 11.522 4 9.764 4 8.634 5.273 8.508 6.449c-.031.327.032.947.126 1.665-.44-.098-.503.817-.471 1.143 0 .327.377.98.722.882.188 1.404.754 1.861.754 1.861l-.032 1.502s-.345.229-1.852.882c-1.476.62-3.015 1.077-3.454 1.828-.408.653-.283 3.788-.283 3.788h9.2v-3.004Zm.973 1.992v-1.992H20v1.992h-5.809Z"/></svg>
